X: 1
T: Mad Dan
M: 4/4
L: 1/8
R: reel
K: Gmaj
|: B/c/d | g2 gd edBd | GABd edBA | G2 dG eGdG | A^GAB cdef |
g/g/g dg edBA | G2 dG edBA | G/G/G dG eGdG | A^GAB =G2 :|
|: D/E/F | G2 dG eGdG | gd B/c/d edBA | G2 dG eGdG | A^GAB cded |
G/G/G dG eG G/G/G | gdBd edBd | G/A/G dG eG B/c/d | ed B/c/d G2 :|
